X: '1'
T:Ariette du Printemps
C:Laurence Beaudry
N:pour Louis Champagne
R:reel
M:4/4
L:1/8
K:D
AFDF ADdc | BGDG Bcde | AFED A,2F2 | EA,B,C DEFB |
AFDF AFdc | BGDG Bcde | f3a gecA |1 d3B AGFE :|2 d8 |:
cdcd ea^ga | gfed ecA2 | GFGB edcB | AGEG ABAB | cdcd ecea |
gfgf ecA2 |1 GBdf e2^cA | FAcA d3B :|2 GBdf e3c | AFGE D4 |]
